www/assets/icons/connecting_airports.svg

<svg width="24" height="24" viewBox="0 0 24 24" xmlns="http://www.w3.org/2000/svg" fill='currentColor'><path d="M15.4 17L16.7 21.4H15.6L13 17H10C9.45 17 9 16.55 9 16C9 15.45 9.45 15 10 15H13L15.6 10.6H16.7L15.4 15H18.25L19 14H20L19.4 16L20 18H19L18.25 17H15.4ZM5.75 6.99998L5 5.99998H4L4.6 7.99998L4 9.99998H5L5.75 8.99998H8.6L7.3 13.4H8.4L11 8.99998H14C14.55 8.99998 15 8.54998 15 7.99998C15 7.44998 14.55 6.99998 14 6.99998H11L8.4 2.59998H7.3L8.6 6.99998H5.75Z"/></svg>

<svg xmlns="http://www.w3.org/2000/svg" width="24" height="24" viewBox="0 0 24 24" fill='currentColor'><path d="m15.4 17 1.3 4.4h-1.1L13 17h-3c-.55 0-1-.45-1-1s.45-1 1-1h3l2.6-4.4h1.1L15.4 15h2.85l.75-1h1l-.6 2 .6 2h-1l-.75-1zM5.75 7 5 6H4l.6 2-.6 2h1l.75-1H8.6l-1.3 4.4h1.1L11 9h3c.55 0 1-.45 1-1s-.45-1-1-1h-3L8.4 2.6H7.3L8.6 7z"/></svg>
